icon-svg/aqara-e1.svg

<svg xmlns="http://www.w3.org/2000/svg" viewBox="0 0 24 24"><path fill="#44739e" d="m16.751 17.287.063-.039.414.665-.063.039Zm.288-.799.067-.03.61 1.346-.068.031Zm.207-.128.067-.032.236.499-.067.032Zm.325-1.639a2.5 2.5 0 0 0-.276-.6.97.97 0 0 0-.583-.322.53.53 0 0 1-.384-.293H7.287c-.1.138-.144.32-.271.338-.556.08-.793.794-.793.794-.258.727-1.114 3.166-.536 4.927.114.348 1.405.725 3.169.947a1.6 1.6 0 0 1-.089-.567c0-.421.12-.762.268-.762s.267.341.267.762a1.5 1.5 0 0 1-.106.607c2.74.3 6.453.228 8.746-.857 1.197-.567.221-3.907-.371-4.977Zm.2 3.256a.46.46 0 0 1-.172.146l-.407-.8-.065.033.4.795a1 1 0 0 1-.113.027c-.362.053-.63.021-.776-.881a1.1 1.1 0 0 1 .068-.594l.235.33.06-.043-.26-.364a.77.77 0 0 1 .426-.399 1 1 0 0 1 .316-.063.33.33 0 0 1 .168.04c.135.083.166.291.206.554l.014.1a1.54 1.54 0 0 1-.091 1.119Zm-.239-1.545.069-.027.295.762-.069.026Zm.037.73.067-.03.2.452-.068.031ZM9.301 9.81a1.556 1.556 0 0 0 1.479-1.627 1.56 1.56 0 0 0-1.479-1.625 1.557 1.557 0 0 0-1.475 1.625A1.56 1.56 0 0 0 9.301 9.81m0-2.866a1.186 1.186 0 0 1 1.124 1.239 1.185 1.185 0 0 1-1.124 1.24 1.187 1.187 0 0 1-1.12-1.24 1.187 1.187 0 0 1 1.12-1.239m.654 1.239a.69.69 0 0 1-.654.716.724.724 0 1 1 .653-.721Zm-2.227 5.079H15.8a5.55 5.55 0 0 0 2.421-4.876C18.221 4.6 15.821 2 11.926 2S5.627 4.594 5.627 8.385a5.71 5.71 0 0 0 2.101 4.877M6.552 7.099a4.65 4.65 0 0 1 4.299-4.275c3.285-.008 1.956 1.316 1.956 4.275 0 2.813-1.033 5.093-2.722 5.093-2.961-.003-3.764-2.293-3.533-5.093m10.469 13.117-.292.488-.111-.066.213-.355q-.3.1-.6.177l-.164.358-.117-.054.121-.265a9 9 0 0 1-.486.1l-.147.32-.117-.054.109-.24q-.234.039-.471.066l-.045.276-.127-.021.039-.24q-.265.029-.532.047l-.014.255-.132-.01.013-.239q-.324.02-.657.032v.237h-.124v-.23q-.352.012-.717.019v.247h-.129v-.244h-.188c-.089 0-.254.006-.476.008v.231h-.129v-.23c-.209 0-.457 0-.733-.006v.236h-.129v-.239a29 29 0 0 1-.661-.026v.265h-.138v-.272a22 22 0 0 1-.651-.046l.058.265-.126.028-.067-.3a20 20 0 0 1-.535-.058l.1.27-.116.052-.13-.335a14 14 0 0 1-.557-.086l.154.3-.116.058-.2-.389a11 11 0 0 1-.388-.082l.148.327-.118.053-.189-.419a7 7 0 0 1-.352-.1l.144.32-.117.053-.193-.427a5 5 0 0 1-.321-.123 9 9 0 0 0-.613-.168c.839.371.637.36 1.07.978a1.25 1.25 0 0 0 .775.572c.776.167 1.461.3 1.846.351a18.4 18.4 0 0 0 5.61-.221s1.477-.277 1.68-.813a1.45 1.45 0 0 1 .351-.5 3 3 0 0 1 .867-.57 5 5 0 0 0-.748.317Z"/></svg>

<?xml version="1.0" encoding="UTF-8"?>
<svg width="24px" fill="#44739e" height="24px" viewBox="0 0 24 24" version="1.1" xmlns="http://www.w3.org/2000/svg" xmlns:xlink="http://www.w3.org/1999/xlink">
            <path d="m 16.751,17.289 0.063,-0.039 0.414,0.665 -0.063,0.039 z m 0.288,-0.8 0.067,-0.03 0.61,1.347 -0.068,0.031 z m 0.207,-0.128 0.067,-0.032 0.236,0.5 -0.067,0.032 z m 0.325,-1.639 A 2.51,2.51 0 0 0 17.295,14.122 0.965,0.965 0 0 0 16.712,13.8 0.527,0.527 0 0 1 16.328,13.507 H 7.286 c -0.1,0.138 -0.144,0.32 -0.271,0.338 -0.556,0.08 -0.793,0.794 -0.793,0.794 -0.258,0.727 -1.114,3.167 -0.536,4.928 0.114,0.348 1.405,0.725 3.169,0.947 A 1.63,1.63 0 0 1 8.766,19.947 c 0,-0.421 0.12,-0.762 0.268,-0.762 0.148,0 0.267,0.341 0.267,0.762 a 1.537,1.537 0 0 1 -0.106,0.607 c 2.741,0.3 6.454,0.228 8.747,-0.857 1.197,-0.567 0.221,-3.908 -0.371,-4.978 z m 0.2,3.257 v 0 a 0.459,0.459 0 0 1 -0.172,0.146 l -0.407,-0.8 -0.065,0.033 0.4,0.795 a 0.715,0.715 0 0 1 -0.113,0.027 c -0.362,0.053 -0.63,0.021 -0.776,-0.881 a 1.126,1.126 0 0 1 0.068,-0.594 l 0.235,0.33 0.06,-0.043 -0.26,-0.364 a 0.77,0.77 0 0 1 0.426,-0.4 1.038,1.038 0 0 1 0.316,-0.063 0.326,0.326 0 0 1 0.168,0.04 c 0.135,0.083 0.166,0.291 0.206,0.555 l 0.014,0.1 a 1.543,1.543 0 0 1 -0.091,1.119 z m -0.239,-1.546 0.069,-0.027 0.295,0.763 -0.069,0.026 z m 0.037,0.731 0.067,-0.03 0.2,0.452 -0.068,0.031 z M 9.3,9.811 A 1.556,1.556 0 0 0 10.78,8.184 1.558,1.558 0 0 0 9.3,6.558 1.557,1.557 0 0 0 7.825,8.184 1.558,1.558 0 0 0 9.3,9.811 Z m 0,-2.866 A 1.186,1.186 0 0 1 10.425,8.184 1.185,1.185 0 0 1 9.3,9.424 1.187,1.187 0 0 1 8.18,8.184 1.187,1.187 0 0 1 9.3,6.945 Z M 9.955,8.184 A 0.69,0.69 0 0 1 9.3,8.9 v 0 A 0.724,0.724 0 1 1 9.954,8.179 Z M 7.727,13.263 H 15.8 A 5.552,5.552 0 0 0 18.221,8.387 C 18.221,4.6 15.821,2 11.926,2 8.031,2 5.626,4.594 5.626,8.386 a 5.708,5.708 0 0 0 2.101,4.877 z M 6.551,7.1 a 4.647,4.647 0 0 1 4.3,-4.276 c 3.285,-0.008 1.956,1.316 1.956,4.276 0,2.813 -1.033,5.093 -2.722,5.093 C 7.123,12.19 6.32,9.9 6.551,7.1 Z m 10.47,13.118 -0.292,0.488 -0.111,-0.066 0.213,-0.355 q -0.3,0.1 -0.6,0.177 l -0.164,0.358 -0.117,-0.054 0.121,-0.265 c -0.162,0.038 -0.324,0.071 -0.486,0.1 l -0.147,0.32 -0.117,-0.054 0.109,-0.24 q -0.234,0.039 -0.471,0.066 l -0.045,0.276 -0.127,-0.021 0.039,-0.24 c -0.177,0.019 -0.354,0.035 -0.532,0.047 L 14.28,21.01 14.148,21 14.161,20.761 c -0.216,0.014 -0.435,0.024 -0.657,0.032 V 21.03 H 13.38 V 20.8 c -0.235,0.008 -0.473,0.014 -0.717,0.019 v 0.247 h -0.129 v -0.244 h -0.188 c -0.089,0 -0.254,0.006 -0.476,0.008 v 0.231 h -0.129 v -0.23 c -0.209,0 -0.457,0 -0.733,-0.006 v 0.236 h -0.129 v -0.239 c -0.208,-0.006 -0.43,-0.014 -0.661,-0.026 v 0.265 H 10.08 V 20.789 C 9.868,20.777 9.649,20.762 9.428,20.743 l 0.058,0.265 -0.126,0.028 -0.067,-0.3 C 9.116,20.719 8.936,20.7 8.758,20.678 l 0.1,0.27 L 8.742,21 8.612,20.665 C 8.425,20.64 8.238,20.611 8.055,20.579 l 0.154,0.3 -0.116,0.058 -0.2,-0.389 C 7.761,20.523 7.632,20.495 7.505,20.466 L 7.653,20.793 7.535,20.846 7.346,20.427 C 7.225,20.396 7.108,20.363 6.994,20.327 L 7.138,20.647 7.021,20.7 6.828,20.273 C 6.716,20.234 6.609,20.194 6.507,20.15 6.405,20.106 5.894,19.982 5.894,19.982 c 0.839,0.371 0.637,0.36 1.07,0.978 a 1.246,1.246 0 0 0 0.775,0.572 c 0.776,0.167 1.461,0.3 1.846,0.351 a 18.4,18.4 0 0 0 5.611,-0.221 c 0,0 1.477,-0.277 1.68,-0.813 a 1.449,1.449 0 0 1 0.351,-0.5 2.944,2.944 0 0 1 0.867,-0.57 5.227,5.227 0 0 0 -0.748,0.317 c -0.109,0.04 -0.217,0.082 -0.325,0.121 z"/>

</svg>
